X: 1
T: John Brady's
M: 6/8
L: 1/8
R: jig
K: Edor
|:A|Bed B2G|AFD EFA|Bed B2G|Eag e2d|
eaf g2e|dBA G2A|Bed BAG|Bcd E2:|
|:F|GFG AGA|BAB e2f|gfe fed|Bcd e2f|
gfe fed|BAF DEF|~G3 ~F3|Bcd E2:|
